packages/gestalt-icons-android/vr-theme/ic_vr_maximize_gestalt.svg

<svg width="24" height="24" viewBox="0 0 24 24" fill="none" xmlns="http://www.w3.org/2000/svg">
<path d="M23 1V10H21V4.41421L14.7071 10.7071L13.2929 9.29289L19.5858 3H14.001L14 2L14.0001 1H23Z" fill="black"/>
<path d="M1 23V14H3V19.5858L9.29289 13.2929L10.7071 14.7071L4.41422 21H9.99903L10 22L9.99994 23H1Z" fill="black"/>
</svg>

<svg xmlns="http://www.w3.org/2000/svg" width="24" height="24"><path d="M23 1v9h-2V4.41l-6.3 6.3-1.4-1.42L19.58 3H14V1zM1 23v-9h2v5.59l6.3-6.3 1.4 1.42L4.42 21H10v2z"/></svg>
